X:28
T:Shepherd I have lost my love. JJo.028
S:J.Jones MS,1801,N.Shrops.
A:N Shropshire
Z:Neil Brookes 2006
M:4/4
L:1/8
Q:1/4=120
K:F
f3ga2ag|gffcc4|d2c2f2ef|e2Td2c4|!
f2f2faac’|c2cd dcBA|Bcde f>gaB|A2TG2F4||!
A3GA2B2|c2cd{d}c4|d2c2f2ef|e2Td2c4|!
f2f2faac’|c2cd dcBA|Bcde f>gaB|A2TG2F4|]

